X:1
T: The Happy Days of Youth
C:
R:Reel
Q: 232
K:G
M:4/4
L:1/8
G2 Bd e2 dB|GA BG AG EF|G2 Bd e2 dB|cA BG EG G2|
G2 Bd e2 dB|GA BG AG EF|G2 Bd e2 dB|cA BG EG G2|
|:fa ag fd de|fd ag fd d2|fa ag fd df|ed ef gf ed|
fa ag fd de|fd ag fd d2|bg af gf ef|df af ge dB:|
G2 Bd e2 dB|GA BG AG EF|G2 Bd e2 dB|cA BG EG G2|
G2 Bd e2 dB|GA BG AG EF|G2 Bd e2 dB|cA BG EG G2||
